checkfile/uploads/admin/foldertest/1736231473281_gamut-S-Log3.cube
TITLE "Gamut S-Log3 Conversion LUT"
# Version 1.0 - 02/26/2021 - Copyright 2021 Gamut, LLC
# 
LUT_3D_SIZE 33
0.0000000000 0.0007890000 0.0007890000
0.0000000000 0.0007890000 0.0007890000
0.0015770000 0.0015770000 0.0015770000
0.0047310000 0.0023660000 0.0031540000
0.0118290000 0.0039430000 0.0047310000
0.0260230000 0.0047310000 0.0047310000
0.0440050000 0.0063090000 0.0055200000
0.0667560000 0.0063090000 0.0055200000
0.0896000000 0.0063090000 0.0047310000
0.1170660000 0.0094630000 0.0039430000
0.1472530000 0.0118290000 0.0031540000
0.1809120000 0.0118290000 0.0047310000
0.2173120000 0.0157710000 0.0078860000
0.2591740000 0.0220800000 0.0102510000
0.3070580000 0.0244460000 0.0141940000
0.3540420000 0.0260230000 0.0189260000
0.4045050000 0.0252340000 0.0212920000
0.4596660000 0.0260230000 0.0244460000
0.5167340000 0.0252340000 0.0260230000
0.5749060000 0.0252340000 0.0276000000
0.6318000000 0.0252340000 0.0307540000
0.6837330000 0.0323320000 0.0370630000
0.7312820000 0.0496690000 0.0447380000
0.7749250000 0.0639530000 0.0561960000
0.8150430000 0.0771550000 0.0700030000
0.8521620000 0.0917450000 0.0860720000
0.8871730000 0.1082580000 0.1045420000
0.9195230000 0.1256020000 0.1252840000
0.9474150000 0.1422900000 0.1467100000
0.9684610000 0.1574580000 0.1677310000
0.9816120000 0.1696130000 0.1850120000
0.9877470000 0.1764850000 0.1951580000
0.9902240000 0.1798160000 0.2001200000
0.0000000000 0.0007890000 0.0007890000
0.0000000000 0.0007890000 0.0007890000
0.0015770000 0.0015770000 0.0015770000
0.0047310000 0.0023660000 0.0031540000
0.0118290000 0.0039430000 0.0047310000
0.0260230000 0.0047310000 0.0055200000
0.0432640000 0.0063090000 0.0055200000
0.0645210000 0.0063090000 0.0055200000
0.0896000000 0.0063090000 0.0055200000
0.1146640000 0.0094630000 0.0039430000
0.1436860000 0.0118290000 0.0031540000
0.1767090000 0.0118290000 0.0047310000
0.2133400000 0.0149830000 0.0078860000
0.2533960000 0.0212920000 0.0102510000
0.3003760000 0.0244460000 0.0141940000
0.3464640000 0.0260230000 0.0181370000
0.3955350000 0.0252340000 0.0212920000
0.4494840000 0.0260230000 0.0236570000
0.5051850000 0.0260230000 0.0252340000
0.5627010000 0.0244460000 0.0276000000
0.6194610000 0.0268120000 0.0299660000
0.6720710000 0.0291770000 0.0354860000
0.7197040000 0.0447380000 0.0425160000
0.7638210000 0.0604640000 0.0530020000
0.8042310000 0.0736490000 0.0656460000
0.8417370000 0.0878510000 0.0810100000
0.8769110000 0.1037840000 0.0987290000
0.9099220000 0.1207480000 0.1184180000
0.9390370000 0.1377280000 0.1397420000
0.9623050000 0.1533560000 0.1609580000
0.9780010000 0.1665430000 0.1798160000
0.9863000000 0.1753600000 0.1925230000
0.9901150000 0.1802550000 0.1997280000
0.0015770000 0.0047310000 0.0015770000
0.0015770000 0.0047310000 0.0015770000
0.0031540000 0.0055200000 0.0023660000
0.0063090000 0.0055200000 0.0031540000
0.0126170000 0.0055200000 0.0039430000
0.0268120000 0.0070970000 0.0055200000
0.0454630000 0.0078860000 0.0055200000
0.0639530000 0.0078860000 0.0055200000
0.0882910000 0.0070970000 0.0047310000
0.1150100000 0.0102510000 0.0039430000
0.1434080000 0.0126170000 0.0031540000
0.1751340000 0.0134060000 0.0047310000
0.2107700000 0.0165600000 0.0070970000
0.2500680000 0.0220800000 0.0094630000
0.2952780000 0.0252340000 0.0126170000
0.3413330000 0.0268120000 0.0173490000
0.3890240000 0.0260230000 0.0205030000
0.4411740000 0.0268120000 0.0228690000
0.4957000000 0.0260230000 0.0252340000
0.5522460000 0.0244460000 0.0268120000
0.6086490000 0.0276000000 0.0291770000
0.6615270000 0.0260230000 0.0339090000
0.7092700000 0.0409940000 0.0402170000
0.7535550000 0.0580530000 0.0496690000
0.7943530000 0.0710600000 0.0616430000
0.8320290000 0.0847170000 0.0761670000
0.8674920000 0.1003090000 0.0934290000
0.9007720000 0.1174050000 0.1122140000
0.9311780000 0.1345010000 0.1330090000
0.9564080000 0.1507330000 0.1543920000
0.9742890000 0.1648640000 0.1744540000
0.9846040000 0.1753600000 0.1896400000
0.9898710000 0.1820000000 0.1991380000
0.0031540000 0.0110400000 0.0039430000
0.0031540000 0.0110400000 0.0039430000
0.0055200000 0.0110400000 0.0039430000
0.0094630000 0.0110400000 0.0039430000
0.0149830000 0.0102510000 0.0055200000
0.0276000000 0.0110400000 0.0063090000
0.0447380000 0.0110400000 0.0063090000
0.0633820000 0.0102510000 0.0063090000
0.0865200000 0.0094630000 0.0055200000
0.1118590000 0.0118290000 0.0039430000
0.1403120000 0.0165600000 0.0039430000
0.1717060000 0.0181370000 0.0047310000
0.2076000000 0.0205030000 0.0070970000
0.2468440000 0.0244460000 0.0094630000
0.2916090000 0.0276000000 0.0126170000
0.3379320000 0.0283890000 0.0157710000
0.3849420000 0.0283890000 0.0189260000
0.4374510000 0.0283890000 0.0212920000
0.4911410000 0.0283890000 0.0236570000
0.5475110000 0.0268120000 0.0252340000
0.6029680000 0.0291770000 0.0268120000
0.6560100000 0.0268120000 0.0315430000
0.7038500000 0.0417590000 0.0378520000
0.7475270000 0.0586620000 0.0468920000
0.7881420000 0.0726220000 0.0580530000
0.8258080000 0.0860720000 0.0721040000
0.8610500000 0.1014790000 0.0882910000
0.8943020000 0.1184180000 0.1067860000
0.9251670000 0.1356830000 0.1271800000
0.9514670000 0.1520500000 0.1486010000
0.9710600000 0.1665430000 0.1693790000
0.9828760000 0.1780480000 0.1860750000
0.9893810000 0.1858630000 0.1975570000
0.0055200000 0.0189260000 0.0055200000
0.0055200000 0.0197140000 0.0055200000
0.0070970000 0.0212920000 0.0055200000
0.0110400000 0.0205030000 0.0055200000
0.0189260000 0.0212920000 0.0063090000
0.0315430000 0.0220800000 0.0070970000
0.0468920000 0.0212920000 0.0078860000
0.0639530000 0.0205030000 0.0078860000
0.0833430000 0.0197140000 0.0070970000
0.1082580000 0.0220800000 0.0063090000
0.1353890000 0.0244460000 0.0055200000
0.1677310000 0.0252340000 0.0055200000
0.2039940000 0.0260230000 0.0070970000
0.2443540000 0.0283890000 0.0086740000
0.2899460000 0.0307540000 0.0118290000
0.3367530000 0.0315430000 0.0157710000
0.3844850000 0.0307540000 0.0181370000
0.4372950000 0.0307540000 0.0205030000
0.4916800000 0.0307540000 0.0228690000
0.5481570000 0.0299660000 0.0236570000
0.6035910000 0.0323320000 0.0252340000
0.6567090000 0.0299660000 0.0299660000
0.7040630000 0.0461810000 0.0354860000
0.7473690000 0.0628060000 0.0447380000
0.7874440000 0.0771550000 0.0555680000
0.8243900000 0.0908920000 0.0694700000
0.8591830000 0.1071560000 0.0856220000
0.8921210000 0.1243260000 0.1037840000
0.9227240000 0.1414460000 0.1236830000
0.9491140000 0.1574580000 0.1447930000
0.9690490000 0.1723970000 0.1655860000
0.9814750000 0.1841570000 0.1828660000
0.9885910000 0.1925230000 0.1953590000
0.0070970000 0.0346970000 0.0070970000
0.0070970000 0.0354860000 0.0070970000
0.0086740000 0.0378520000 0.0063090000
0.0110400000 0.0370630000 0.0063090000
0.0189260000 0.0378520000 0.0070970000
0.0339090000 0.0386400000 0.0070970000
0.0503480000 0.0378520000 0.0070970000
0.0662020000 0.0378520000 0.0078860000
0.0847170000 0.0370630000 0.0094630000
0.1067860000 0.0378520000 0.0110400000
0.1321050000 0.0386400000 0.0102510000
0.1621890000 0.0378520000 0.0094630000
0.1973580000 0.0362740000 0.0094630000
0.2380000000 0.0354860000 0.0102510000
0.2846280000 0.0354860000 0.0126170000
0.3315500000 0.0354860000 0.0157710000
0.3801590000 0.0346970000 0.0181370000
0.4329000000 0.0354860000 0.0205030000
0.4874820000 0.0354860000 0.0220800000
0.5447980000 0.0346970000 0.0228690000
0.6016670000 0.0370630000 0.0244460000
0.6551230000 0.0354860000 0.0283890000
0.7028280000 0.0523470000 0.0346970000
0.7464630000 0.0694700000 0.0432640000
0.7867450000 0.0838030000 0.0536510000
0.8235240000 0.0987290000 0.0673050000
0.8582650000 0.1156990000 0.0833430000
0.8910600000 0.1333080000 0.1010900000
0.9215890000 0.1504680000 0.1210780000
0.9478470000 0.1665430000 0.1420090000
0.9677050000 0.1811300000 0.1624340000
0.9800710000 0.1929310000 0.1795960000
0.9873650000 0.2014850000 0.1925230000
0.0086740000 0.0516860000 0.0078860000
0.0086740000 0.0536510000 0.0078860000
0.0102510000 0.0549340000 0.0070970000
0.0118290000 0.0555680000 0.0063090000
0.0181370000 0.0549340000 0.0070970000
0.0331200000 0.0549340000 0.0063090000
0.0516860000 0.0555680000 0.0063090000
0.0689340000 0.0555680000 0.0055200000
0.0878510000 0.0549340000 0.0063090000
0.1097120000 0.0549340000 0.0110400000
0.1336080000 0.0549340000 0.0149830000
0.1614520000 0.0542950000 0.0165600000
0.1945540000 0.0516860000 0.0157710000
0.2334350000 0.0496690000 0.0149830000
0.2786520000 0.0475960000 0.0157710000
0.3252410000 0.0461810000 0.0181370000
0.3731270000 0.0440050000 0.0197140000
0.4257180000 0.0440050000 0.0212920000
0.4799880000 0.0432640000 0.0220800000
0.5378210000 0.0425160000 0.0228690000
0.5952660000 0.0447380000 0.0236570000
0.6499130000 0.0447380000 0.0276000000
0.6985480000 0.0610560000 0.0331200000
0.7432610000 0.0781340000 0.0417590000
0.7838670000 0.0934290000 0.0523470000
0.8213360000 0.1097120000 0.0656460000
0.8563900000 0.1274930000 0.0814810000
0.8893700000 0.1453430000 0.0991260000
0.9197930000 0.1621890000 0.1187530000
0.9461750000 0.1780480000 0.1394560000
0.9659940000 0.1925230000 0.1597170000
0.9783050000 0.2041850000 0.1764850000
0.9855070000 0.2126090000 0.1890160000
0.0118290000 0.0694700000 0.0063090000
0.0118290000 0.0710600000 0.0063090000
0.0126170000 0.0731370000 0.0063090000
0.0141940000 0.0736490000 0.0055200000
0.0189260000 0.0731370000 0.0055200000
0.0323320000 0.0726220000 0.0055200000
0.0496690000 0.0726220000 0.0055200000
0.0683940000 0.0736490000 0.0063090000
0.0882910000 0.0731370000 0.0047310000
0.1115040000 0.0731370000 0.0078860000
0.1368550000 0.0731370000 0.0157710000
0.1646230000 0.0731370000 0.0220800000
0.1945540000 0.0721040000 0.0244460000
0.2312800000 0.0710600000 0.0244460000
0.2747210000 0.0694700000 0.0244460000
0.3198130000 0.0667560000 0.0244460000
0.3667060000 0.0639530000 0.0244460000
0.4175580000 0.0622270000 0.0244460000
0.4714940000 0.0598680000 0.0244460000
0.5286420000 0.0574390000 0.0236570000
0.5857120000 0.0580530000 0.0244460000
0.6416830000 0.0592670000 0.0268120000
0.6918450000 0.0741580000 0.0331200000
0.7375240000 0.0904630000 0.0409940000
0.7791520000 0.1067860000 0.0516860000
0.8171480000 0.1240050000 0.0650850000
0.8526250000 0.1420090000 0.0805360000
0.8861030000 0.1599660000 0.0979300000
0.9168790000 0.1767090000 0.1170660000
0.9434560000 0.1923190000 0.1374370000
0.9634610000 0.2064690000 0.1572050000
0.9760370000 0.2178470000 0.1737710000
0.9833700000 0.2260490000 0.1858630000
0.0141940000 0.0900320000 0.0086740000
0.0141940000 0.0921680000 0.0094630000
0.0149830000 0.0942620000 0.0094630000
0.0157710000 0.0963150000 0.0094630000
0.0197140000 0.0954990000 0.0094630000
0.0315430000 0.0938460000 0.0102510000
0.0461810000 0.0938460000 0.0102510000
0.0639530000 0.0950880000 0.0110400000
0.0869650000 0.0967210000 0.0149830000
0.1122140000 0.0963150000 0.0149830000
0.1400280000 0.0963150000 0.0173490000
0.1691450000 0.0959080000 0.0244460000
0.1997280000 0.0959080000 0.0307540000
0.2337640000 0.0963150000 0.0339090000
0.2738990000 0.0959080000 0.0346970000
0.3160160000 0.0946760000 0.0339090000
0.3614290000 0.0925900000 0.0323320000
0.4111370000 0.0908920000 0.0315430000
0.4633840000 0.0882910000 0.0299660000
0.5191310000 0.0851700000 0.0283890000
0.5761750000 0.0838030000 0.0276000000
0.6318980000 0.0842610000 0.0291770000
0.6831580000 0.0950880000 0.0339090000
0.7297820000 0.1093500000 0.0417590000
0.7722910000 0.1243260000 0.0516860000
0.8110590000 0.1414460000 0.0650850000
0.8471710000 0.1594680000 0.0800600000
0.8811420000 0.1769330000 0.0975290000
0.9124710000 0.1931350000 0.1160420000
0.9396780000 0.2083510000 0.1359770000
0.9601840000 0.2224260000 0.1556770000
0.9730940000 0.2337640000 0.1717060000
0.9806490000 0.2416770000 0.1835130000
0.0141940000 0.1163850000 0.0181370000
0.0141940000 0.1180810000 0.0189260000
0.0149830000 0.1210780000 0.0181370000
0.0165600000 0.1240050000 0.0173490000
0.0197140000 0.1236830000 0.0165600000
0.0276000000 0.1214060000 0.0165600000
0.0402170000 0.1197550000 0.0165600000
0.0561960000 0.1207480000 0.0181370000
0.0795820000 0.1223870000 0.0197140000
0.1089870000 0.1243260000 0.0236570000
0.1403120000 0.1243260000 0.0228690000
0.1723970000 0.1243260000 0.0228690000
0.2053310000 0.1240050000 0.0283890000
0.2418350000 0.1243260000 0.0362740000
0.2802600000 0.1249650000 0.0409940000
0.3191260000 0.1256020000 0.0425160000
0.3612320000 0.1256020000 0.0417590000
0.4078380000 0.1256020000 0.0402170000
0.4580500000 0.1246460000 0.0378520000
0.5123460000 0.1227120000 0.0362740000
0.5675000000 0.1207480000 0.0346970000
0.6225130000 0.1207480000 0.0346970000
0.6737850000 0.1271800000 0.0386400000
0.7211900000 0.1365630000 0.0447380000
0.7642420000 0.1488690000 0.0536510000
0.8036580000 0.1636540000 0.0662020000
0.8404550000 0.1800360000 0.0805360000
0.8750250000 0.1961620000 0.0975290000
0.9070590000 0.2113230000 0.1156990000
0.9347960000 0.2260490000 0.1353890000
0.9560670000 0.2397660000 0.1546500000
0.9695800000 0.2508290000 0.1705470000
0.9776970000 0.2585880000 0.1820000000
0.0149830000 0.1472530000 0.0236570000
0.0149830000 0.1491370000 0.0236570000
0.0165600000 0.1525740000 0.0236570000
0.0181370000 0.1566970000 0.0220800000
0.0212920000 0.1572050000 0.0205030000
0.0260230000 0.1543920000 0.0197140000
0.0346970000 0.1523120000 0.0205030000
0.0468920000 0.1520500000 0.0228690000
0.0673050000 0.1533560000 0.0244460000
0.0963150000 0.1561880000 0.0252340000
0.1345010000 0.1592180000 0.0268120000
0.1717060000 0.1589680000 0.0260230000
0.2083510000 0.1594680000 0.0236570000
0.2468440000 0.1597170000 0.0276000000
0.2880140000 0.1594680000 0.0354860000
0.3280260000 0.1594680000 0.0417590000
0.3690220000 0.1602150000 0.0454630000
0.4131520000 0.1612050000 0.0461810000
0.4606900000 0.1621890000 0.0461810000
0.5117700000 0.1621890000 0.0454630000
0.5642870000 0.1619440000 0.0440050000
0.6169950000 0.1629230000 0.0432640000
0.6674880000 0.1665430000 0.0461810000
0.7143450000 0.1721670000 0.0503480000
0.7573970000 0.1806930000 0.0580530000
0.7968190000 0.1921140000 0.0689340000
0.8338730000 0.2049500000 0.0824160000
0.8685910000 0.2183810000 0.0983300000
0.9010800000 0.2316130000 0.1160420000
0.9294070000 0.2451350000 0.1353890000
0.9513810000 0.2581480000 0.1543920000
0.9656850000 0.2686280000 0.1698470000
0.9742890000 0.2762200000 0.1811300000
0.0181370000 0.1830820000 0.0268120000
0.0181370000 0.1854380000 0.0268120000
0.0189260000 0.1888080000 0.0268120000
0.0197140000 0.1937440000 0.0252340000
0.0205030000 0.1955600000 0.0228690000
0.0236570000 0.1935410000 0.0220800000
0.0283890000 0.1904690000 0.0228690000
0.0386400000 0.1894330000 0.0244460000
0.0568200000 0.1898480000 0.0268120000
0.0847170000 0.1923190000 0.0276000000
0.1227120000 0.1955600000 0.0276000000
0.1667810000 0.1983490000 0.0268120000
0.2076000000 0.1983490000 0.0252340000
0.2494580000 0.1985470000 0.0212920000
0.2930070000 0.1985470000 0.0228690000
0.3347050000 0.1987440000 0.0283890000
0.3778330000 0.1987440000 0.0354860000
0.4231280000 0.1993350000 0.0417590000
0.4695720000 0.2005110000 0.0461810000
0.5185020000 0.2012910000 0.0496690000
0.5689010000 0.2024540000 0.0510200000
0.6194110000 0.2043770000 0.0523470000
0.6676240000 0.2074120000 0.0549340000
0.7128400000 0.2115080000 0.0586620000
0.7544110000 0.2176690000 0.0650850000
0.7930430000 0.2255350000 0.0741580000
0.8293560000 0.2349130000 0.0865200000
0.8637580000 0.2448230000 0.1007000000
0.8957930000 0.2556360000 0.1174050000
0.9242740000 0.2670790000 0.1359770000
0.9468100000 0.2785180000 0.1541330000
0.9616550000 0.2880140000 0.1693790000
0.9707530000 0.2946500000 0.1806930000
0.0157710000 0.2227740000 0.0276000000
0.0149830000 0.2251920000 0.0276000000
0.0141940000 0.2287660000 0.0268120000
0.0134060000 0.2342570000 0.0244460000
0.0141940000 0.2371920000 0.0228690000
0.0173490000 0.2357300000 0.0220800000
0.0236570000 0.2322770000 0.0228690000
0.0331200000 0.2302780000 0.0244460000
0.0496690000 0.2296070000 0.0260230000
0.0746640000 0.2312800000 0.0283890000
0.1097120000 0.2342570000 0.0268120000
0.1538750000 0.2375150000 0.0244460000
0.2022610000 0.2402460000 0.0228690000
0.2491520000 0.2399260000 0.0189260000
0.2951530000 0.2404050000 0.0134060000
0.3389990000 0.2405640000 0.0134060000
0.3837530000 0.2405640000 0.0189260000
0.4312380000 0.2407240000 0.0268120000
0.4792240000 0.2408830000 0.0354860000
0.5287040000 0.2416770000 0.0440050000
0.5780440000 0.2427830000 0.0503480000
0.6272780000 0.2448230000 0.0555680000
0.6740550000 0.2476160000 0.0604640000
0.7174670000 0.2514350000 0.0662020000
0.7576290000 0.2563780000 0.0731370000
0.7946070000 0.2623690000 0.0819500000
0.8293210000 0.2689080000 0.0925900000
0.8622260000 0.2762200000 0.1056690000
0.8931500000 0.2841030000 0.1207480000
0.9210200000 0.2931340000 0.1380170000
0.9433690000 0.3023380000 0.1554210000
0.9585400000 0.3100380000 0.1698470000
0.9678450000 0.3154360000 0.1804740000
0.0157710000 0.2650930000 0.0260230000
0.0157710000 0.2677840000 0.0260230000
0.0165600000 0.2711400000 0.0252340000
0.0157710000 0.2767630000 0.0228690000
0.0165600000 0.2806610000 0.0205030000
0.0205030000 0.2801270000 0.0205030000
0.0276000000 0.2771690000 0.0220800000
0.0331200000 0.2743110000 0.0228690000
0.0425160000 0.2734880000 0.0236570000
0.0616430000 0.2738990000 0.0244460000
0.0950880000 0.2756760000 0.0244460000
0.1394560000 0.2789210000 0.0205030000
0.1900550000 0.2819900000 0.0173490000
0.2446670000 0.2838390000 0.0165600000
0.2942720000 0.2841030000 0.0110400000
0.3414390000 0.2844960000 0.0055200000
0.3876690000 0.2846280000 0.0063090000
0.4366710000 0.2850210000 0.0118290000
0.4863910000 0.2847590000 0.0197140000
0.5372790000 0.2847590000 0.0299660000
0.5878640000 0.2852830000 0.0402170000
0.6370090000 0.2867170000 0.0496690000
0.6833350000 0.2890460000 0.0586620000
0.7261980000 0.2923730000 0.0678520000
0.7652350000 0.2965310000 0.0776460000
0.8010760000 0.3012360000 0.0882910000
0.8344190000 0.3064570000 0.1003090000
0.8656440000 0.3119280000 0.1129190000
0.8949550000 0.3178640000 0.1271800000
0.9214090000 0.3244560000 0.1428500000
0.9430790000 0.3313310000 0.1587170000
0.9579150000 0.3369680000 0.1719360000
0.9673410000 0.3409100000 0.1822170000
0.0197140000 0.3095640000 0.0236570000
0.0197140000 0.3125160000 0.0236570000
0.0197140000 0.3159000000 0.0228690000
0.0205030000 0.3215210000 0.0212920000
0.0220800000 0.3260240000 0.0197140000
0.0228690000 0.3269160000 0.0189260000
0.0228690000 0.3244560000 0.0189260000
0.0228690000 0.3215210000 0.0181370000
0.0276000000 0.3196980000 0.0181370000
0.0461810000 0.3191260000 0.0181370000
0.0805360000 0.3195840000 0.0189260000
0.1259190000 0.3217480000 0.0165600000
0.1764850000 0.3246810000 0.0126170000
0.2316130000 0.3273600000 0.0102510000
0.2891750000 0.3294630000 0.0094630000
0.3398500000 0.3299040000 0.0039430000
0.3897440000 0.3303440000 0.0023660000
0.4405560000 0.3307830000 0.0039430000
0.4916130000 0.3308930000 0.0078860000
0.5434950000 0.3307830000 0.0149830000
0.5952660000 0.3310020000 0.0244460000
0.6455530000 0.3316590000 0.0362740000
0.6927580000 0.3334040000 0.0489850000
0.7358790000 0.3358930000 0.0628060000
0.7750000000 0.3392120000 0.0766620000
0.8105990000 0.3430190000 0.0913190000
0.8432510000 0.3472930000 0.1056690000
0.8735180000 0.3517080000 0.1204180000
0.9015720000 0.3563580000 0.1350930000
0.9268600000 0.3613310000 0.1504680000
0.9474440000 0.3663180000 0.1651050000
0.9617110000 0.3701730000 0.1773800000
0.9709210000 0.3728430000 0.1869200000
0.0197140000 0.3550510000 0.0197140000
0.0197140000 0.3578590000 0.0189260000
0.0197140000 0.3613310000 0.0181370000
0.0197140000 0.3668030000 0.0165600000
0.0197140000 0.3719870000 0.0149830000
0.0205030000 0.3737900000 0.0134060000
0.0228690000 0.3719870000 0.0126170000
0.0260230000 0.3685410000 0.0118290000
0.0315430000 0.3663180000 0.0126170000
0.0461810000 0.3656390000 0.0141940000
0.0726220000 0.3654440000 0.0141940000
0.1125670000 0.3667060000 0.0134060000
0.1609580000 0.3692140000 0.0102510000
0.2162370000 0.3723680000 0.0063090000
0.2764910000 0.3751120000 0.0055200000
0.3336210000 0.3771780000 0.0031540000
0.3878500000 0.3781130000 0.0015770000
0.4421750000 0.3787650000 0.0015770000
0.4954340000 0.3792300000 0.0031540000
0.5483920000 0.3795090000 0.0063090000
0.6007280000 0.3797880000 0.0126170000
0.6518910000 0.3803440000 0.0220800000
0.6999640000 0.3813620000 0.0354860000
0.7440530000 0.3832030000 0.0516860000
0.7840890000 0.3855810000 0.0694700000
0.8203270000 0.3885730000 0.0882910000
0.8534860000 0.3919840000 0.1067860000
0.8838330000 0.3956240000 0.1246460000
0.9116830000 0.3993970000 0.1417280000
0.9364370000 0.4033860000 0.1582150000
0.9564370000 0.4070720000 0.1733140000
0.9701110000 0.4099570000 0.1854380000
0.9790500000 0.4117260000 0.1947550000
0.0228690000 0.4022640000 0.0165600000
0.0228690000 0.4052770000 0.0165600000
0.0236570000 0.4089410000 0.0165600000
0.0236570000 0.4148210000 0.0149830000
0.0236570000 0.4203540000 0.0126170000
0.0252340000 0.4232910000 0.0118290000
0.0283890000 0.4223960000 0.0110400000
0.0307540000 0.4193700000 0.0102510000
0.0346970000 0.4163170000 0.0110400000
0.0468920000 0.4149880000 0.0110400000
0.0705330000 0.4146550000 0.0118290000
0.1056690000 0.4153210000 0.0118290000
0.1502030000 0.4173930000 0.0094630000
0.2034180000 0.4201090000 0.0055200000
0.2626570000 0.4235340000 0.0039430000
0.3234440000 0.4265240000 0.0031540000
0.3833860000 0.4290090000 0.0015770000
0.4410190000 0.4301250000 0.0015770000
0.4970310000 0.4309200000 0.0023660000
0.5517220000 0.4313960000 0.0031540000
0.6050410000 0.4317930000 0.0063090000
0.6564290000 0.4324260000 0.0126170000
0.7049980000 0.4332950000 0.0228690000
0.7500390000 0.4345550000 0.0394290000
0.7910730000 0.4363580000 0.0586620000
0.8285650000 0.4385410000 0.0805360000
0.8628450000 0.4410960000 0.1026370000
0.8943640000 0.4439400000 0.1240050000
0.9229920000 0.4469130000 0.1442410000
0.9480200000 0.4500120000 0.1629230000
0.9676210000 0.4529350000 0.1795960000
0.9805110000 0.4550930000 0.1931350000
0.9885910000 0.4565010000 0.2034180000
0.0268120000 0.4537550000 0.0165600000
0.0268120000 0.4569440000 0.0165600000
0.0268120000 0.4609820000 0.0165600000
0.0276000000 0.4671380000 0.0141940000
0.0283890000 0.4731230000 0.0126170000
0.0299660000 0.4769210000 0.0110400000
0.0323320000 0.4771310000 0.0102510000
0.0354860000 0.4747460000 0.0094630000
0.0417590000 0.4712810000 0.0102510000
0.0542950000 0.4690730000 0.0110400000
0.0746640000 0.4681420000 0.0126170000
0.1060430000 0.4682860000 0.0126170000
0.1469810000 0.4695010000 0.0110400000
0.1973580000 0.4717780000 0.0086740000
0.2547430000 0.4748870000 0.0055200000
0.3155520000 0.4782490000 0.0039430000
0.3768970000 0.4812360000 0.0039430000
0.4378410000 0.4835810000 0.0047310000
0.4965660000 0.4848860000 0.0055200000
0.5532910000 0.4855710000 0.0055200000
0.6078780000 0.4861860000 0.0063090000
0.6598180000 0.4867320000 0.0086740000
0.7087650000 0.4876180000 0.0165600000
0.7541770000 0.4888410000 0.0299660000
0.7959500000 0.4902630000 0.0489850000
0.8345550000 0.4919490000 0.0705330000
0.8702380000 0.4937620000 0.0938460000
0.9032930000 0.4957670000 0.1174050000
0.9332390000 0.4978940000 0.1403120000
0.9587670000 0.5002080000 0.1616980000
0.9776690000 0.5024420000 0.1809120000
0.9892450000 0.5041430000 0.1963620000
0.9957220000 0.5052500000 0.2085380000
0.0394290000 0.5082330000 0.0205030000
0.0402170000 0.5117060000 0.0212920000
0.0417590000 0.5157840000 0.0212920000
0.0440050000 0.5218260000 0.0197140000
0.0468920000 0.5276580000 0.0181370000
0.0503480000 0.5321310000 0.0165600000
0.0536510000 0.5332870000 0.0157710000
0.0586620000 0.5313990000 0.0157710000
0.0656460000 0.5280890000 0.0165600000
0.0766620000 0.5251860000 0.0165600000
0.0946760000 0.5236340000 0.0173490000
0.1214060000 0.5231980000 0.0181370000
0.1577100000 0.5237590000 0.0173490000
0.2026470000 0.5252480000 0.0149830000
0.2548920000 0.5278420000 0.0118290000
0.3118110000 0.5309710000 0.0094630000
0.3717010000 0.5341980000 0.0094630000
0.4332160000 0.5369780000 0.0102510000
