checkfile/uploads/admin/foldertest/1736231473281_gamut-S-Log3.cube
TITLE "Gamut S-Log3 Conversion LUT"
# Version 1.0 - 02/26/2021 - Copyright 2021 Gamut, LLC
# 
LUT_3D_SIZE 5
0.0000000000 0.0007890000 0.0007890000
0.0896000000 0.0063090000 0.0047310000
0.4045050000 0.0252340000 0.0212920000
0.8150430000 0.0771550000 0.0700030000
0.9902240000 0.1798160000 0.2001200000
0.0141940000 0.0900320000 0.0086740000
0.0869650000 0.0967210000 0.0149830000
0.3614290000 0.0925900000 0.0323320000
0.7722910000 0.1243260000 0.0516860000
0.9806490000 0.2416770000 0.1835130000
0.0228690000 0.4022640000 0.0165600000
0.0346970000 0.4163170000 0.0110400000
0.3833860000 0.4290090000 0.0015770000
0.7910730000 0.4363580000 0.0586620000
0.9885910000 0.4565010000 0.2034180000
0.1350930000 0.8022610000 0.0995220000
0.1549070000 0.8259460000 0.0673050000
0.3478100000 0.8190010000 0.0568200000
0.8015070000 0.8319270000 0.0938460000
1.0000000000 0.8392390000 0.1597170000
0.1278060000 1.0000000000 0.2231210000
0.1587170000 1.0000000000 0.1686750000
0.2899460000 1.0000000000 0.1296660000
0.7542160000 0.9965850000 0.2520400000
0.9934790000 0.9846860000 0.6800080000
0.0031540000 0.0094630000 0.0715840000
0.1097120000 0.0126170000 0.0656460000
0.4430970000 0.0276000000 0.0542950000
0.8571470000 0.0963150000 0.1265510000
0.9929920000 0.1852250000 0.2257070000
0.0126170000 0.1129190000 0.0963150000
0.0942620000 0.1010900000 0.0999160000
0.4315550000 0.0568200000 0.0616430000
0.8077960000 0.1160420000 0.1086230000
0.9913920000 0.2357300000 0.2365430000
0.0197140000 0.4306820000 0.0683940000
0.0307540000 0.4461530000 0.0503480000
0.4033860000 0.4366710000 0.0268120000
0.7977230000 0.4097030000 0.1230360000
0.9817500000 0.4203540000 0.2542940000
0.1353890000 0.8191060000 0.0991260000
0.1543920000 0.8154290000 0.0705330000
0.3504820000 0.8072270000 0.0610560000
0.8003920000 0.8183020000 0.0954990000
1.0000000000 0.8227610000 0.1691450000
0.1336080000 1.0000000000 0.2206780000
0.1638970000 1.0000000000 0.1705470000
0.2941450000 1.0000000000 0.1342040000
0.7515260000 0.9967730000 0.2536960000
0.9937770000 0.9848770000 0.6852770000
0.0094630000 0.0378520000 0.3057350000
0.0882910000 0.0489850000 0.3459440000
0.5288270000 0.0432640000 0.3149710000
0.9038150000 0.1350930000 0.3090880000
1.0000000000 0.2144320000 0.3640790000
0.0165600000 0.0856220000 0.3483250000
0.0432640000 0.0726220000 0.4097030000
0.4744640000 0.0468920000 0.3666090000
0.8560610000 0.1350930000 0.3261360000
1.0000000000 0.2438840000 0.3843940000
0.0007890000 0.4870730000 0.4267650000
0.0063090000 0.4844740000 0.4463050000
0.4113900000 0.4274880000 0.4306020000
0.8549070000 0.3450070000 0.3420720000
0.9970160000 0.3783930000 0.3762410000
0.1122140000 0.8613770000 0.4134860000
0.1391700000 0.8625850000 0.4051910000
0.2993890000 0.8866700000 0.3658330000
0.8349300000 0.8514320000 0.2834440000
1.0000000000 0.7935160000 0.3531310000
0.1281180000 1.0000000000 0.3560570000
0.1663040000 1.0000000000 0.3433340000
0.2771690000 1.0000000000 0.3182090000
0.7587100000 0.9955330000 0.3861270000
0.9943170000 0.9855890000 0.6988910000
0.0276000000 0.0751680000 0.6913220000
0.0938460000 0.0917450000 0.7811240000
0.5546810000 0.1018670000 0.7852710000
0.9312960000 0.2034180000 0.6861570000
1.0000000000 0.2787870000 0.6526890000
0.0283890000 0.1003090000 0.7096490000
0.0731370000 0.1064150000 0.7739850000
0.4819960000 0.1177440000 0.8063370000
0.9184130000 0.2182030000 0.7500790000
1.0000000000 0.3023380000 0.7124210000
0.0656460000 0.4228840000 0.7934800000
0.0967210000 0.3944740000 0.8111300000
0.3758650000 0.3190120000 0.8861350000
0.8844330000 0.2937670000 0.8002840000
1.0000000000 0.3938530000 0.7406390000
0.0751680000 0.9054690000 0.8495710000
0.0995220000 0.8994770000 0.8603630000
0.2047590000 0.8965070000 0.8796500000
0.8244940000 0.8250480000 0.8416690000
1.0000000000 0.7149710000 0.7487450000
0.0283890000 1.0000000000 0.8586260000
0.0800600000 1.0000000000 0.8548080000
0.2030330000 1.0000000000 0.8359840000
0.7122540000 0.9979850000 0.8214060000
0.9997050000 0.9952900000 0.8210230000
0.0991260000 0.1707790000 0.9945340000
0.1679670000 0.2028400000 1.0000000000
0.5673870000 0.2371920000 1.0000000000
0.9422670000 0.3035560000 0.9997050000
1.0000000000 0.3863090000 0.9926120000
0.0938460000 0.1767090000 0.9922330000
0.1536150000 0.1983490000 0.9999460000
0.5024420000 0.2352400000 1.0000000000
0.9240060000 0.3031910000 1.0000000000
1.0000000000 0.3975600000 0.9993290000
0.1265510000 0.3909110000 0.9999460000
0.1564430000 0.3694060000 1.0000000000
0.4056200000 0.3422820000 1.0000000000
0.8644410000 0.3610350000 1.0000000000
1.0000000000 0.4593720000 1.0000000000
0.1380170000 0.8528900000 1.0000000000
0.1782700000 0.8342830000 1.0000000000
0.3228800000 0.7897920000 1.0000000000
0.7633620000 0.6825820000 1.0000000000
1.0000000000 0.6159850000 1.0000000000
0.1824340000 1.0000000000 1.0000000000
0.2471530000 1.0000000000 1.0000000000
0.3824680000 1.0000000000 1.0000000000
0.7305530000 1.0000000000 1.0000000000
1.0000000000 1.0000000000 1.0000000000
